X:1
T:Lusatia, 88.88.88
T:Lusatia, 88.88.88
T:From Freylinghausen, 1704
T:Public Domain Courtesy of the Cyber Hymnal™
C:From Freylinghausen, 1704
Z:Public Domain
Z:Courtesy of the Cyber Hymnal™
%%score ( 1 2 ) ( 3 4 )
L:1/8
Q:1/4=107
M:4/4
K:G
V:1 treble 
V:2 treble 
V:3 bass 
V:4 bass 
V:1
 [B,D]2 | [CE]2 [CF]2 [DG]2 [EA]2 | [DB]2 [CA]2 [B,G]2 [DB]2 | [DA]2 [^DB]2 [EG]2 [=DF]2 | %4
 [DE]2 [^CE]2 D2 [DF]2 | [DG]2 [DA]2 [DB]2 [EG]2 | c2 [GB]2 [FA]2 [FA]2 | [GB]2 [FA]2 [GB]2 [Ad]2 | %8
 [Gd]2 [E^c]2 [Fd]2 [Gd]2 | [Ge]2 [Fd]2 [Ec]2 [GB]2 | [FA]2 [EG]2 [^DF]2 [=D=d]2 | %11
 [EG]2 [EA]2 [DF]2 [^CG]2 | [DB]2 [CA]2 [B,G]2 |] %13
V:2
 x2 | x8 | x8 | x8 | x4 D2 x2 | x8 | (EF) x6 | x8 | x8 | x8 | x8 | x8 | x6 |] %13
V:3
 G,2 | [C,G,]2 [A,,A,]2 [B,,G,]2 [C,G,]2 | [D,G,]2 [D,F,]2 [G,,G,]2 [G,,G,]2 | %3
 [D,F,]2 [B,,F,]2 [E,G,]2 [F,A,]2 | [G,B,]2 A,2 [D,F,]2 [D,A,]2 | [B,,G,]2 [D,F,]2 G,2 [E,B,]2 | %6
 [A,,C]2 D2 [D,D]2 [D,D]2 | [G,D]2 [D,D]2 [G,D]2 [F,D]2 | [G,B,]2 A,2 [D,A,]2 [G,B,]2 | %9
 [C,C]2 [D,A,]2 [A,,C]2 [B,,D]2 | [D,D]2 [E,B,]2 [B,,B,]2 [B,,G,]2 | %11
 [C,G,]2 [C,C]2 [D,A,]2 [E,G,]2 | [D,G,]2 [D,F,]2 [G,,G,]2 |] %13
V:4
 G,2 | x8 | x8 | x8 | x2 A,2 x4 | x4 G,2 x2 | x2 (B,,C,) x4 | x8 | x2 A,2 x4 | x8 | x8 | x8 | x6 |] %13

